X: 10614
M: C
L: 1/8
K: Gm
(DG)(BG) dGBG | C(FA)f TF>G A/G/F/=E/ |\
g/a/ |\
bgdg Gdgb | afcf Fcfa |
bgdg fdcB | A>f d/c/B/A/ BGGg/a/ |\
bgdg Gdgb | afcf Fcfa |\
b<ga>^f g>d=f>c | A>f d/c/B/A/ BGG |]


